X:2
T:Liza
C:George & Ira Gershwin
L:1/8
M:C
I:linebreak $
K:Eb
"Eb" B4"Bb7" B4 |"F#o" c4"C7" c4 |"Ab6" e4"Ao" e4 |"Bbm" f8 "Eb7" x4|$"Ab" z2 e2"Ab6" c2 A2 |
"Gm" d2 B2"Gb7" G4 |"Fm" z2 cA"E7" FEDF ||1"Eb6" "_Fine" E8 :|2$"Eb6" E8 "Db7" x4||"Cm6" e8 "Aø" x4|
z"Dø" f ed"Db7" e2 d2 |"Cm" c4"Bo" G4 |$"Bbm" B4"A7" =B4 |"Ab" c8 "Ab6" x4|
"Gø" z _d c=B"Gb7" c2 _B2 |"Fm" A4"Fm/Eb" E4 |"B7" ^F4"Bb7" "_D.C. al Fine" G4 ||

